assets/business-color/BusinessColor17.svg

<svg xmlns="http://www.w3.org/2000/svg" id="Layer_1" x="0" y="0" version="1.1" viewBox="0 0 256 256" xml:space="preserve"><style>.st0{fill:#fff}.st1{fill:#9feaff}.st2{fill:#48386a}</style><path d="M179 174.7V78.2H77v114.6h102V181z" class="st0"/><path d="M171.1 37.9h70.3c5.4 0 9.8 4.4 9.8 9.8v34.6c0 5.4-4.4 9.8-9.8 9.8H179V78.2H77v13.9H14.5c-5.4 0-9.8-4.4-9.8-9.8V47.7c0-5.4 4.4-9.8 9.8-9.8h156.6zM36.2 152.8h40.9v13.6H36.2zM179 152.8h40.9v13.6H179z" class="st0"/><path d="M24.4 118.3V92.1h11.8v120.1c0 3.3-2.6 5.9-5.9 5.9-3.3 0-5.9-2.6-5.9-5.9v-93.9zM219.8 108.6V92.1h11.8v120.1c0 3.3-2.6 5.9-5.9 5.9-3.3 0-5.9-2.6-5.9-5.9V108.6z" class="st0"/><path d="M251.3 47.7v34.6c0 5.4-4.4 9.8-9.8 9.8h-39.6V37.9h39.6c5.4 0 9.8 4.4 9.8 9.8zM4.7 82.3V47.7c0-5.4 4.4-9.8 9.8-9.8h39.6v54.3H14.5c-5.4-.1-9.8-4.5-9.8-9.9z" class="st0"/><path d="M87.3 58.5H57.1v-8.4h147.8v8.4H94.5z" class="st1"/><path d="M241.5 93.1H179c-.6 0-1-.4-1-1V79.2H78v12.9c0 .6-.4 1-1 1H14.5c-6 0-10.8-4.9-10.8-10.8V47.7c0-6 4.9-10.8 10.8-10.8h150.7c.6 0 1 .4 1 1s-.4 1-1 1H14.5c-4.9 0-8.8 4-8.8 8.8v34.6c0 4.9 4 8.8 8.8 8.8H76V78.2c0-.6.4-1 1-1h102c.6 0 1 .4 1 1v12.9h61.5c4.9 0 8.8-4 8.8-8.8V47.7c0-4.9-4-8.8-8.8-8.8h-70.3c-.6 0-1-.4-1-1s.4-1 1-1h70.3c6 0 10.8 4.9 10.8 10.8v34.6c0 6-4.8 10.8-10.8 10.8z" class="st2"/><path d="M55.8 199.6H39.2v-13.5H80v6.7h102v-6.7h40.8v13.5H63.7zM88.7 107.5h84.7v12.3H88.7zM88.7 150.6h84.7v12.3H88.7zM152.8 172.2h20.6v12.3h-20.6z" class="st1"/><path d="M219.8 200.6H60.7c-.6 0-1-.4-1-1s.4-1 1-1h158.1v-11.5H180v5.8c0 .6-.4 1-1 1H77c-.6 0-1-.4-1-1v-5.8H37.2v11.5h15.7c.6 0 1 .4 1 1s-.4 1-1 1H36.2c-.6 0-1-.4-1-1v-13.5c0-.6.4-1 1-1H77c.6 0 1 .4 1 1v5.8h100v-5.8c0-.6.4-1 1-1h40.9c.6 0 1 .4 1 1v13.5c-.1.6-.5 1-1.1 1zM77 167.3H36.2c-.6 0-1-.4-1-1v-13.6c0-.6.4-1 1-1H77c.6 0 1 .4 1 1v13.6c0 .6-.4 1-1 1zm-39.8-2H76v-11.6H37.2v11.6zM219.8 167.3H179c-.6 0-1-.4-1-1v-13.6c0-.6.4-1 1-1h40.9c.6 0 1 .4 1 1v13.6c-.1.6-.5 1-1.1 1zm-39.8-2h38.9v-11.6H180v11.6z" class="st2"/><path d="M30.3 219.1c-3.8 0-6.9-3.1-6.9-6.9v-88c0-.6.4-1 1-1s1 .4 1 1v88c0 2.7 2.2 4.9 4.9 4.9s4.9-2.2 4.9-4.9V93.1h-9.8v25.2c0 .6-.4 1-1 1s-1-.4-1-1V92.1c0-.6.4-1 1-1h11.8c.6 0 1 .4 1 1v120.1c0 3.8-3.1 6.9-6.9 6.9zM219.8 120.2c-.6 0-1-.4-1-1v-3.1c0-.6.4-1 1-1s1 .4 1 1v3.1c0 .5-.4 1-1 1z" class="st2"/><path d="M225.7 219.1c-3.8 0-6.9-3.1-6.9-6.9v-88c0-.6.4-1 1-1s1 .4 1 1v88c0 2.7 2.2 4.9 4.9 4.9s4.9-2.2 4.9-4.9V93.1h-9.8v15.5c0 .6-.4 1-1 1s-1-.4-1-1V92.1c0-.6.4-1 1-1h11.8c.6 0 1 .4 1 1v120.1c0 3.8-3.1 6.9-6.9 6.9z" class="st2"/><path d="M241.5 93.1h-39.6c-.6 0-1-.4-1-1V37.9c0-.6.4-1 1-1h39.6c6 0 10.8 4.9 10.8 10.8v34.6c0 6-4.8 10.8-10.8 10.8zm-38.6-2h38.6c4.9 0 8.8-4 8.8-8.8V47.7c0-4.9-4-8.8-8.8-8.8h-38.6v52.2zM54.1 93.1H14.5c-6 0-10.8-4.9-10.8-10.8V47.7c0-6 4.9-10.8 10.8-10.8h39.6c.6 0 1 .4 1 1v54.3c0 .5-.5.9-1 .9zM14.5 38.9c-4.9 0-8.8 4-8.8 8.8v34.6c0 4.9 4 8.8 8.8 8.8h38.6V38.9H14.5z" class="st2"/><path d="M225.7 80.9c-8.8 0-15.9-7.1-15.9-15.9s7.1-15.9 15.9-15.9 15.9 7.1 15.9 15.9-7.1 15.9-15.9 15.9zm0-29.8c-7.7 0-13.9 6.3-13.9 13.9 0 7.7 6.3 13.9 13.9 13.9s13.9-6.3 13.9-13.9c.1-7.7-6.2-13.9-13.9-13.9z" class="st2"/><path d="M231.7 54.4c4.6 1.3 8 5.6 8 10.6 0 6.1-4.9 11-11 11s-11-4.9-11-11c0-5.6 4.3-10.3 9.7-10.9l4.3.3zM26 50.3h-8.7v29.4h30.1V50.3H30zM191.1 67.2v24.9H182V78.2H80v13.9h-9.1V67.2z" class="st1"/><path d="M225.7 76.5c-6.3 0-11.5-5.2-11.5-11.5 0-5.8 4.4-10.8 10.2-11.4.3 0 .5.2.6.4 0 .3-.2.5-.4.6-5.3.6-9.3 5.1-9.3 10.4 0 5.8 4.7 10.5 10.5 10.5s10.5-4.7 10.5-10.5c0-4.7-3.1-8.8-7.6-10.1-.3-.1-.4-.4-.3-.6.1-.3.4-.4.6-.3 4.9 1.4 8.3 5.9 8.3 11.1-.1 6.2-5.2 11.4-11.6 11.4zM48.6 84.8H10.2c-.6 0-1-.4-1-1V46.2c0-.6.4-1 1-1h38.4c.6 0 1 .4 1 1v37.7c0 .5-.5.9-1 .9zm-37.4-2h36.4V47.2H11.2v35.6z" class="st2"/><path d="M44.4 80.2H14.3c-.3 0-.5-.2-.5-.5V50.3c0-.3.2-.5.5-.5H23c.3 0 .5.2.5.5s-.2.5-.5.5h-8.2v28.4h29.1V50.8H27c-.3 0-.5-.2-.5-.5s.2-.5.5-.5h17.4c.3 0 .5.2.5.5v29.4c0 .3-.2.5-.5.5zM188.1 93.1H179c-.6 0-1-.4-1-1V79.2H78v12.9c0 .6-.4 1-1 1h-9.2c-.6 0-1-.4-1-1v-25c0-.6.4-1 1-1h120.3c.6 0 1 .4 1 1v25c0 .6-.4 1-1 1zm-8.1-2h7.2v-23H68.9v23H76V78.2c0-.6.4-1 1-1h102c.6 0 1 .4 1 1v12.9zM201.9 59H91.5c-.3 0-.5-.2-.5-.5s.2-.5.5-.5h110v-7.5H54.6V58h29.8c.3 0 .5.2.5.5s-.3.5-.6.5H54.1c-.3 0-.5-.2-.5-.5V50c0-.3.2-.5.5-.5H202c.3 0 .5.2.5.5v8.5c-.1.3-.3.5-.6.5z" class="st2"/><path d="M179 193.8H77c-.6 0-1-.4-1-1V78.2c0-.6.4-1 1-1h102c.6 0 1 .4 1 1v96.5c0 .6-.4 1-1 1s-1-.4-1-1V79.2H78v112.6h100V181c0-.6.4-1 1-1s1 .4 1 1v11.8c0 .6-.5 1-1 1z" class="st2"/><path d="M170.3 98.8h-34.7c-.3 0-.5-.2-.5-.5s.2-.5.5-.5h34.2V86.5H86.2v11.3h45.2c.3 0 .5.2.5.5s-.2.5-.5.5H85.7c-.3 0-.5-.2-.5-.5V86c0-.3.2-.5.5-.5h84.7c.3 0 .5.2.5.5v12.3c-.1.3-.3.5-.6.5zM170.3 120.3H85.7c-.3 0-.5-.2-.5-.5v-12.3c0-.3.2-.5.5-.5h84.7c.3 0 .5.2.5.5v12.3c-.1.3-.3.5-.6.5zm-84.1-1h83.7V108H86.2v11.3zM170.3 141.9H85.7c-.3 0-.5-.2-.5-.5v-12.3c0-.3.2-.5.5-.5h20.1c.3 0 .5.2.5.5s-.2.5-.5.5H86.2v11.3h83.7v-11.3H111c-.3 0-.5-.2-.5-.5s.2-.5.5-.5h59.3c.3 0 .5.2.5.5v12.3c0 .3-.2.5-.5.5zM170.3 163.4H85.7c-.3 0-.5-.2-.5-.5v-12.3c0-.3.2-.5.5-.5h84.7c.3 0 .5.2.5.5v12.3c-.1.3-.3.5-.6.5zm-84.1-1h83.7v-11.3H86.2v11.3zM136.4 185H85.7c-.3 0-.5-.2-.5-.5v-12.3c0-.3.2-.5.5-.5h50.7c.3 0 .5.2.5.5v12.3c0 .3-.3.5-.5.5zm-50.2-1h49.7v-11.3H86.2V184zM170.3 185h-20.6c-.3 0-.5-.2-.5-.5v-12.3c0-.3.2-.5.5-.5h20.6c.3 0 .5.2.5.5v12.3c0 .3-.2.5-.5.5zm-20-1h19.6v-11.3h-19.6V184zM20.3 74.6c-.1 0-.3 0-.4-.1-.2-.2-.2-.5 0-.7l18.2-18.2c.2-.2.5-.2.7 0s.2.5 0 .7L20.6 74.4c-.1.1-.2.2-.3.2zM26.3 73.1c-.1 0-.3 0-.4-.1-.2-.2-.2-.5 0-.7l10.5-10.5c.2-.2.5-.2.7 0s.2.5 0 .7L26.7 72.9c-.1.1-.3.2-.4.2z" class="st2"/></svg>

<svg xmlns="http://www.w3.org/2000/svg" id="Layer_1" x="0" y="0" enable-background="new 0 0 256 256" version="1.1" viewBox="0 0 256 256" xml:space="preserve"><style>.st0{fill:#FFFFFF;}
	.st1{fill:#9FEAFF;}
	.st2{fill:#48386A;}</style><path d="M179 174.7 179 78.2 77 78.2 77 192.8 125.6 192.8 127 192.8 179 192.8 179 181z" class="st0"/><path d="M171.1 37.9h70.3c5.4 0 9.8 4.4 9.8 9.8v34.6c0 5.4-4.4 9.8-9.8 9.8H179V78.2H77v13.9H14.5c-5.4 0-9.8-4.4-9.8-9.8V47.7c0-5.4 4.4-9.8 9.8-9.8h156.6z" class="st0"/><path d="M36.2 152.8H77.1V166.4H36.2z" class="st0"/><path d="M179 152.8H219.9V166.4H179z" class="st0"/><path d="M24.4 118.3V92.1h11.8v120.1c0 3.3-2.6 5.9-5.9 5.9-3.3 0-5.9-2.6-5.9-5.9v-93.9zM219.8 108.6V92.1h11.8v120.1c0 3.3-2.6 5.9-5.9 5.9-3.3 0-5.9-2.6-5.9-5.9V108.6z" class="st0"/><path d="M251.3 47.7v34.6c0 5.4-4.4 9.8-9.8 9.8h-39.6V37.9h39.6c5.4 0 9.8 4.4 9.8 9.8zM4.7 82.3V47.7c0-5.4 4.4-9.8 9.8-9.8h39.6v54.3H14.5c-5.4-.1-9.8-4.5-9.8-9.9z" class="st0"/><path d="M87.3 58.5 57.1 58.5 57.1 50.1 204.9 50.1 204.9 58.5 94.5 58.5z" class="st1"/><path d="M241.5 93.1H179c-.6 0-1-.4-1-1V79.2H78v12.9c0 .6-.4 1-1 1H14.5c-6 0-10.8-4.9-10.8-10.8V47.7c0-6 4.9-10.8 10.8-10.8h150.7c.6 0 1 .4 1 1s-.4 1-1 1H14.5c-4.9 0-8.8 4-8.8 8.8v34.6c0 4.9 4 8.8 8.8 8.8H76V78.2c0-.6.4-1 1-1h102c.6 0 1 .4 1 1v12.9h61.5c4.9 0 8.8-4 8.8-8.8V47.7c0-4.9-4-8.8-8.8-8.8h-70.3c-.6 0-1-.4-1-1s.4-1 1-1h70.3c6 0 10.8 4.9 10.8 10.8v34.6c0 6-4.8 10.8-10.8 10.8z" class="st2"/><path d="M55.8 199.6 39.2 199.6 39.2 186.1 80 186.1 80 192.8 182 192.8 182 186.1 222.8 186.1 222.8 199.6 63.7 199.6z" class="st1"/><path d="M88.7 107.5H173.4V119.8H88.7z" class="st1"/><path d="M88.7 150.6H173.4V162.9H88.7z" class="st1"/><path d="M152.8 172.2H173.4V184.5H152.8z" class="st1"/><path d="M219.8 200.6H60.7c-.6 0-1-.4-1-1s.4-1 1-1h158.1v-11.5H180v5.8c0 .6-.4 1-1 1H77c-.6 0-1-.4-1-1v-5.8H37.2v11.5h15.7c.6 0 1 .4 1 1s-.4 1-1 1H36.2c-.6 0-1-.4-1-1v-13.5c0-.6.4-1 1-1H77c.6 0 1 .4 1 1v5.8h100v-5.8c0-.6.4-1 1-1h40.9c.6 0 1 .4 1 1v13.5c-.1.6-.5 1-1.1 1zM77 167.3H36.2c-.6 0-1-.4-1-1v-13.6c0-.6.4-1 1-1H77c.6 0 1 .4 1 1v13.6c0 .6-.4 1-1 1zm-39.8-2H76v-11.6H37.2v11.6zM219.8 167.3H179c-.6 0-1-.4-1-1v-13.6c0-.6.4-1 1-1h40.9c.6 0 1 .4 1 1v13.6c-.1.6-.5 1-1.1 1zm-39.8-2h38.9v-11.6H180v11.6z" class="st2"/><path d="M30.3 219.1c-3.8 0-6.9-3.1-6.9-6.9v-88c0-.6.4-1 1-1s1 .4 1 1v88c0 2.7 2.2 4.9 4.9 4.9s4.9-2.2 4.9-4.9V93.1h-9.8v25.2c0 .6-.4 1-1 1s-1-.4-1-1V92.1c0-.6.4-1 1-1h11.8c.6 0 1 .4 1 1v120.1c0 3.8-3.1 6.9-6.9 6.9zM219.8 120.2c-.6 0-1-.4-1-1v-3.1c0-.6.4-1 1-1s1 .4 1 1v3.1c0 .5-.4 1-1 1z" class="st2"/><path d="M225.7 219.1c-3.8 0-6.9-3.1-6.9-6.9v-88c0-.6.4-1 1-1s1 .4 1 1v88c0 2.7 2.2 4.9 4.9 4.9s4.9-2.2 4.9-4.9V93.1h-9.8v15.5c0 .6-.4 1-1 1s-1-.4-1-1V92.1c0-.6.4-1 1-1h11.8c.6 0 1 .4 1 1v120.1c0 3.8-3.1 6.9-6.9 6.9z" class="st2"/><path d="M241.5 93.1h-39.6c-.6 0-1-.4-1-1V37.9c0-.6.4-1 1-1h39.6c6 0 10.8 4.9 10.8 10.8v34.6c0 6-4.8 10.8-10.8 10.8zm-38.6-2h38.6c4.9 0 8.8-4 8.8-8.8V47.7c0-4.9-4-8.8-8.8-8.8h-38.6v52.2zM54.1 93.1H14.5c-6 0-10.8-4.9-10.8-10.8V47.7c0-6 4.9-10.8 10.8-10.8h39.6c.6 0 1 .4 1 1v54.3c0 .5-.5.9-1 .9zM14.5 38.9c-4.9 0-8.8 4-8.8 8.8v34.6c0 4.9 4 8.8 8.8 8.8h38.6V38.9H14.5z" class="st2"/><path d="M225.7 80.9c-8.8 0-15.9-7.1-15.9-15.9s7.1-15.9 15.9-15.9 15.9 7.1 15.9 15.9-7.1 15.9-15.9 15.9zm0-29.8c-7.7 0-13.9 6.3-13.9 13.9 0 7.7 6.3 13.9 13.9 13.9s13.9-6.3 13.9-13.9c.1-7.7-6.2-13.9-13.9-13.9z" class="st2"/><path d="M231.7 54.4c4.6 1.3 8 5.6 8 10.6 0 6.1-4.9 11-11 11s-11-4.9-11-11c0-5.6 4.3-10.3 9.7-10.9l4.3.3z" class="st1"/><path d="M26 50.3 17.3 50.3 17.3 74 17.3 79.7 47.4 79.7 47.4 74 47.4 50.3 30 50.3z" class="st1"/><path d="M191.1 67.2 191.1 92.1 182 92.1 182 78.2 80 78.2 80 92.1 70.9 92.1 70.9 67.2z" class="st1"/><path d="M225.7 76.5c-6.3 0-11.5-5.2-11.5-11.5 0-5.8 4.4-10.8 10.2-11.4.3 0 .5.2.6.4 0 .3-.2.5-.4.6-5.3.6-9.3 5.1-9.3 10.4 0 5.8 4.7 10.5 10.5 10.5s10.5-4.7 10.5-10.5c0-4.7-3.1-8.8-7.6-10.1-.3-.1-.4-.4-.3-.6.1-.3.4-.4.6-.3 4.9 1.4 8.3 5.9 8.3 11.1-.1 6.2-5.2 11.4-11.6 11.4zM48.6 84.8H10.2c-.6 0-1-.4-1-1V46.2c0-.6.4-1 1-1h38.4c.6 0 1 .4 1 1v37.7c0 .5-.5.9-1 .9zm-37.4-2h36.4V47.2H11.2v35.6z" class="st2"/><path d="M44.4 80.2H14.3c-.3 0-.5-.2-.5-.5V50.3c0-.3.2-.5.5-.5H23c.3 0 .5.2.5.5s-.2.5-.5.5h-8.2v28.4h29.1V50.8H27c-.3 0-.5-.2-.5-.5s.2-.5.5-.5h17.4c.3 0 .5.2.5.5v29.4c0 .3-.2.5-.5.5zM188.1 93.1H179c-.6 0-1-.4-1-1V79.2H78v12.9c0 .6-.4 1-1 1h-9.2c-.6 0-1-.4-1-1v-25c0-.6.4-1 1-1h120.3c.6 0 1 .4 1 1v25c0 .6-.4 1-1 1zm-8.1-2h7.2v-23H68.9v23H76V78.2c0-.6.4-1 1-1h102c.6 0 1 .4 1 1v12.9zM201.9 59H91.5c-.3 0-.5-.2-.5-.5s.2-.5.5-.5h110v-7.5H54.6V58h29.8c.3 0 .5.2.5.5s-.3.5-.6.5H54.1c-.3 0-.5-.2-.5-.5V50c0-.3.2-.5.5-.5H202c.3 0 .5.2.5.5v8.5c-.1.3-.3.5-.6.5z" class="st2"/><path d="M179 193.8H77c-.6 0-1-.4-1-1V78.2c0-.6.4-1 1-1h102c.6 0 1 .4 1 1v96.5c0 .6-.4 1-1 1s-1-.4-1-1V79.2H78v112.6h100V181c0-.6.4-1 1-1s1 .4 1 1v11.8c0 .6-.5 1-1 1z" class="st2"/><path d="M170.3 98.8h-34.7c-.3 0-.5-.2-.5-.5s.2-.5.5-.5h34.2V86.5H86.2v11.3h45.2c.3 0 .5.2.5.5s-.2.5-.5.5H85.7c-.3 0-.5-.2-.5-.5V86c0-.3.2-.5.5-.5h84.7c.3 0 .5.2.5.5v12.3c-.1.3-.3.5-.6.5zM170.3 120.3H85.7c-.3 0-.5-.2-.5-.5v-12.3c0-.3.2-.5.5-.5h84.7c.3 0 .5.2.5.5v12.3c-.1.3-.3.5-.6.5zm-84.1-1h83.7V108H86.2v11.3zM170.3 141.9H85.7c-.3 0-.5-.2-.5-.5v-12.3c0-.3.2-.5.5-.5h20.1c.3 0 .5.2.5.5s-.2.5-.5.5H86.2v11.3h83.7v-11.3H111c-.3 0-.5-.2-.5-.5s.2-.5.5-.5h59.3c.3 0 .5.2.5.5v12.3c0 .3-.2.5-.5.5zM170.3 163.4H85.7c-.3 0-.5-.2-.5-.5v-12.3c0-.3.2-.5.5-.5h84.7c.3 0 .5.2.5.5v12.3c-.1.3-.3.5-.6.5zm-84.1-1h83.7v-11.3H86.2v11.3zM136.4 185H85.7c-.3 0-.5-.2-.5-.5v-12.3c0-.3.2-.5.5-.5h50.7c.3 0 .5.2.5.5v12.3c0 .3-.3.5-.5.5zm-50.2-1h49.7v-11.3H86.2V184zM170.3 185h-20.6c-.3 0-.5-.2-.5-.5v-12.3c0-.3.2-.5.5-.5h20.6c.3 0 .5.2.5.5v12.3c0 .3-.2.5-.5.5zm-20-1h19.6v-11.3h-19.6V184zM20.3 74.6c-.1 0-.3 0-.4-.1-.2-.2-.2-.5 0-.7l18.2-18.2c.2-.2.5-.2.7 0s.2.5 0 .7L20.6 74.4c-.1.1-.2.2-.3.2zM26.3 73.1c-.1 0-.3 0-.4-.1-.2-.2-.2-.5 0-.7l10.5-10.5c.2-.2.5-.2.7 0s.2.5 0 .7L26.7 72.9c-.1.1-.3.2-.4.2z" class="st2"/></svg>
